austria/municipalities/70923.svg

<?xml version="1.0" encoding="UTF-8"?>
<!DOCTYPE svg PUBLIC "-//W3C//DTD SVG 1.1//EN" "http://www.w3.org/Graphics/SVG/1.1/DTD/svg11.dtd">
<svg xmlns="http://www.w3.org/2000/svg" version="1.1" width="166px" height="192px" style="shape-rendering:geometricPrecision; text-rendering:geometricPrecision; image-rendering:optimizeQuality; fill-rule:evenodd; clip-rule:evenodd" xmlns:xlink="http://www.w3.org/1999/xlink">
<g><path style="opacity:1" fill="#110806" d="M -0.5,-0.5 C 54.8333,-0.5 110.167,-0.5 165.5,-0.5C 165.5,39.5 165.5,79.5 165.5,119.5C 157.044,159.623 132.711,183.623 92.5,191.5C 85.5,191.5 78.5,191.5 71.5,191.5C 30.9303,182.931 6.93035,158.264 -0.5,117.5C -0.5,78.1667 -0.5,38.8333 -0.5,-0.5 Z"/></g>
<g><path style="opacity:1" fill="#d73023" d="M 3.5,3.5 C 56.1667,3.5 108.833,3.5 161.5,3.5C 161.667,41.8348 161.5,80.1681 161,118.5C 155.517,150.975 137.35,172.809 106.5,184C 63.1191,194.055 30.9524,179.555 10,140.5C 6.98601,132.766 4.98601,124.766 4,116.5C 3.50001,78.8348 3.33335,41.1681 3.5,3.5 Z"/></g>
<g><path style="opacity:1" fill="#25170f" d="M 47.5,27.5 C 50.5468,26.8554 52.7135,27.8554 54,30.5C 54.3333,35.8333 54.6667,41.1667 55,46.5C 56.8435,41.483 58.8435,36.483 61,31.5C 65.4801,28.4476 67.3135,29.7809 66.5,35.5C 66.2597,40.7949 64.9263,45.7949 62.5,50.5C 64.9855,49.5944 67.3188,47.761 69.5,45C 71.1341,44.5065 72.8008,44.3398 74.5,44.5C 74.6602,46.1992 74.4935,47.8659 74,49.5C 66.1798,62.5727 63.8465,76.5727 67,91.5C 76.9705,99.0619 87.3038,99.3952 98,92.5C 98.8494,86.6612 98.1827,80.9946 96,75.5C 92.648,69.4482 88.8146,63.7816 84.5,58.5C 84.8991,55.9345 86.3991,54.6012 89,54.5C 91.8192,54.9931 94.3192,56.1597 96.5,58C 98.1341,58.4935 99.8008,58.6602 101.5,58.5C 102.752,51.3481 102.752,44.1814 101.5,37C 101.274,34.3291 101.941,31.9958 103.5,30C 105.367,29.2888 106.867,29.7888 108,31.5C 109.489,36.4565 110.822,41.4565 112,46.5C 112.333,41.1667 112.667,35.8333 113,30.5C 114.896,27.0538 117.23,26.7205 120,29.5C 121.124,35.1027 121.79,40.7694 122,46.5C 123.864,41.9093 125.53,37.2426 127,32.5C 128.724,29.2697 130.724,28.9364 133,31.5C 133.667,34.5 133.667,37.5 133,40.5C 131.555,44.1504 130.555,47.817 130,51.5C 132.07,49.1509 134.237,46.9842 136.5,45C 139.237,43.9202 140.904,44.7536 141.5,47.5C 137.596,54.3733 134.762,61.7066 133,69.5C 132.744,77.23 132.578,84.8967 132.5,92.5C 130.393,89.9391 127.726,88.1058 124.5,87C 117.285,85.887 110.285,86.5537 103.5,89C 101.119,90.5087 100.119,92.6753 100.5,95.5C 101.187,105.872 105.353,114.539 113,121.5C 115.533,125.976 114.199,128.31 109,128.5C 105.794,127.733 102.794,126.399 100,124.5C 99.228,124.645 98.5613,124.978 98,125.5C 96.904,134.67 96.0706,143.837 95.5,153C 93.8876,153.72 92.3876,153.554 91,152.5C 89.6667,147.167 88.3333,141.833 87,136.5C 86.6667,141.5 86.3333,146.5 86,151.5C 85.096,156.461 82.7627,157.461 79,154.5C 78.1357,148.857 77.469,143.19 77,137.5C 74.9473,141.654 73.2806,145.987 72,150.5C 70.7367,152.797 68.9034,153.63 66.5,153C 65.3781,149.591 65.2114,146.091 66,142.5C 71.6011,130.139 70.4344,128.973 62.5,139C 59.4333,140.164 57.7666,139.164 57.5,136C 65.668,122.159 68.168,107.326 65,91.5C 60.5399,87.7358 55.3732,86.0691 49.5,86.5C 43.0682,86.032 37.5682,88.032 33,92.5C 31.9952,79.3282 26.8285,68.1616 17.5,59C 17.7975,56.2026 19.2975,54.7026 22,54.5C 26.0449,55.0503 29.5449,56.717 32.5,59.5C 33.086,59.2907 33.586,58.9574 34,58.5C 35.2514,49.2409 35.918,39.9076 36,30.5C 37.4936,29.2528 38.9936,29.2528 40.5,30.5C 42.4621,35.3453 43.9621,40.3453 45,45.5C 46.0535,39.5145 46.8868,33.5145 47.5,27.5 Z"/></g>
<g><path style="opacity:1" fill="#e5a41c" d="M 67.5,94.5 C 77.4415,99.7962 87.4415,99.7962 97.5,94.5C 99.1529,99.4428 100.653,104.443 102,109.5C 105.124,114.951 108.624,120.117 112.5,125C 112.138,126.885 110.971,127.719 109,127.5C 105.723,126.361 102.723,124.694 100,122.5C 98.395,123.101 97.0616,124.101 96,125.5C 95.6667,134.167 95.3333,142.833 95,151.5C 94.586,151.957 94.086,152.291 93.5,152.5C 91.2141,147.039 89.3808,141.372 88,135.5C 87.2825,134.549 86.4491,134.383 85.5,135C 84.6883,141.085 84.1883,147.252 84,153.5C 82.6667,156.167 81.3333,156.167 80,153.5C 79.6667,148.5 79.3333,143.5 79,138.5C 78.6322,137.09 77.7989,136.09 76.5,135.5C 73.8551,140.26 71.6885,145.26 70,150.5C 68.6914,152.891 67.6914,152.891 67,150.5C 67.6261,143.773 68.7928,137.106 70.5,130.5C 69.448,130.351 68.448,130.517 67.5,131C 66.0716,133.185 64.4049,135.185 62.5,137C 61.0563,137.781 59.723,137.614 58.5,136.5C 66.8452,123.677 69.8452,109.677 67.5,94.5 Z"/></g>
<g><path style="opacity:1" fill="#e5a41c" d="M 115.5,28.5 C 117.124,28.3601 118.29,29.0267 119,30.5C 119.214,35.8854 119.714,41.2187 120.5,46.5C 121.651,47.731 122.817,47.731 124,46.5C 125.333,42.5 126.667,38.5 128,34.5C 129.687,30.5513 131.187,30.5513 132.5,34.5C 131.129,40.3233 129.629,45.99 128,51.5C 129.494,52.7472 130.994,52.7472 132.5,51.5C 133.614,48.5964 135.614,46.5964 138.5,45.5C 138.833,46.1667 139.167,46.8333 139.5,47.5C 137.336,52.495 135.17,57.495 133,62.5C 131.428,71.213 130.595,79.8797 130.5,88.5C 120.422,82.9389 110.589,83.2722 101,89.5C 99.7965,78.0947 95.1299,68.4281 87,60.5C 86.51,59.2068 86.3433,57.8734 86.5,56.5C 88.5273,56.3379 90.5273,56.5045 92.5,57C 94.5596,58.6965 96.8929,59.8631 99.5,60.5C 100.442,60.3918 101.275,60.0585 102,59.5C 103.417,50.2479 103.917,40.9146 103.5,31.5C 104.822,31.33 105.989,31.6634 107,32.5C 108.178,37.5435 109.511,42.5435 111,47.5C 112,48.8333 113,48.8333 114,47.5C 114.207,41.0865 114.707,34.7531 115.5,28.5 Z"/></g>
<g><path style="opacity:1" fill="#e4a31c" d="M 48.5,28.5 C 49.8221,28.33 50.9887,28.6634 52,29.5C 52.8309,35.4771 53.3309,41.4771 53.5,47.5C 54.8221,47.67 55.9887,47.3366 57,46.5C 58.6667,41.8333 60.3333,37.1667 62,32.5C 64.3949,31.2018 65.5616,32.0351 65.5,35C 64.0769,40.8557 62.7435,46.689 61.5,52.5C 65.099,51.4358 68.099,49.2691 70.5,46C 71.448,45.5172 72.448,45.3505 73.5,45.5C 70.4028,52.7005 67.5695,60.0338 65,67.5C 64.8311,74.5236 64.3311,81.5236 63.5,88.5C 53.4769,83.0017 43.6436,83.335 34,89.5C 32.8056,78.1123 28.1389,68.4457 20,60.5C 19.51,59.2068 19.3433,57.8734 19.5,56.5C 21.8568,56.3367 24.1902,56.5034 26.5,57C 28.7832,60.0746 31.6166,60.9079 35,59.5C 36.4455,50.2736 36.9455,40.9402 36.5,31.5C 37.8221,31.33 38.9887,31.6634 40,32.5C 41.1775,37.5435 42.5108,42.5435 44,47.5C 45,48.8333 46,48.8333 47,47.5C 47.2474,41.1185 47.7474,34.7851 48.5,28.5 Z"/></g>
<g><path style="opacity:1" fill="#fdfdfd" d="M -0.5,117.5 C 6.93035,158.264 30.9303,182.931 71.5,191.5C 47.5,191.5 23.5,191.5 -0.5,191.5C -0.5,166.833 -0.5,142.167 -0.5,117.5 Z"/></g>
<g><path style="opacity:1" fill="#fdfdfd" d="M 165.5,119.5 C 165.5,143.5 165.5,167.5 165.5,191.5C 141.167,191.5 116.833,191.5 92.5,191.5C 132.711,183.623 157.044,159.623 165.5,119.5 Z"/></g>
</svg>

<svg xmlns="http://www.w3.org/2000/svg" width="166" height="192" style="shape-rendering:geometricPrecision;text-rendering:geometricPrecision;image-rendering:optimizeQuality;fill-rule:evenodd;clip-rule:evenodd"><path style="opacity:1" fill="#110806" d="M-.5-.5h166v120c-8.456 40.123-32.789 64.123-73 72h-21c-40.57-8.569-64.57-33.236-72-74V-.5z"/><path style="opacity:1" fill="#d73023" d="M3.5 3.5h158c.167 38.335 0 76.668-.5 115-5.483 32.475-23.65 54.309-54.5 65.5-43.38 10.055-75.548-4.445-96.5-43.5a97.7 97.7 0 0 1-6-24c-.5-37.665-.667-75.332-.5-113z"/><path style="opacity:1" fill="#25170f" d="M47.5 27.5c3.047-.645 5.214.355 6.5 3l1 16a286.953 286.953 0 0 1 6-15c4.48-3.052 6.314-1.72 5.5 4a35.905 35.905 0 0 1-4 15c2.486-.906 4.819-2.739 7-5.5 1.634-.493 3.3-.66 5-.5.16 1.7-.007 3.366-.5 5-7.82 13.073-10.154 27.073-7 42 9.97 7.562 20.304 7.895 31 1 .85-5.839.183-11.505-2-17a114.495 114.495 0 0 0-11.5-17c.4-2.566 1.9-3.899 4.5-4 2.82.493 5.32 1.66 7.5 3.5 1.634.493 3.3.66 5 .5a62.004 62.004 0 0 0 0-21.5c-.226-2.67.441-5.004 2-7 1.867-.711 3.367-.211 4.5 1.5a248.835 248.835 0 0 1 4 15l1-16c1.896-3.446 4.23-3.78 7-1a106.024 106.024 0 0 1 2 17c1.864-4.59 3.53-9.257 5-14 1.724-3.23 3.724-3.564 6-1 .667 3 .667 6 0 9-1.445 3.65-2.445 7.317-3 11a71.466 71.466 0 0 1 6.5-6.5c2.737-1.08 4.404-.246 5 2.5-3.904 6.873-6.738 14.207-8.5 22-.256 7.73-.422 15.397-.5 23-2.107-2.56-4.774-4.394-8-5.5-7.215-1.113-14.215-.446-21 2-2.381 1.509-3.381 3.675-3 6.5.687 10.372 4.853 19.039 12.5 26 2.533 4.476 1.199 6.81-4 7-3.206-.767-6.206-2.101-9-4a3.944 3.944 0 0 0-2 1 486.44 486.44 0 0 0-2.5 27.5c-1.612.72-3.112.554-4.5-.5l-4-16-1 15c-.904 4.961-3.237 5.961-7 3a245.417 245.417 0 0 1-2-17 76.28 76.28 0 0 0-5 13c-1.263 2.297-3.097 3.13-5.5 2.5-1.122-3.409-1.289-6.909-.5-10.5 5.601-12.361 4.434-13.527-3.5-3.5-3.067 1.164-4.733.164-5-3 8.168-13.841 10.668-28.674 7.5-44.5-4.46-3.764-9.627-5.43-15.5-5-6.432-.468-11.932 1.532-16.5 6-1.005-13.172-6.172-24.338-15.5-33.5.297-2.797 1.797-4.297 4.5-4.5 4.045.55 7.545 2.217 10.5 5a3.646 3.646 0 0 0 1.5-1 223.385 223.385 0 0 0 2-28c1.494-1.247 2.994-1.247 4.5 0a84.104 84.104 0 0 1 4.5 15 250.213 250.213 0 0 0 2.5-18z"/><path style="opacity:1" fill="#e5a41c" d="M67.5 94.5c9.942 5.296 19.942 5.296 30 0a250.97 250.97 0 0 1 4.5 15 124.314 124.314 0 0 0 10.5 15.5c-.362 1.885-1.529 2.719-3.5 2.5a29.883 29.883 0 0 1-9-5c-1.605.601-2.938 1.601-4 3l-1 26a3.647 3.647 0 0 1-1.5 1 107.928 107.928 0 0 1-5.5-17c-.718-.951-1.55-1.117-2.5-.5a181.088 181.088 0 0 0-1.5 18.5c-1.333 2.667-2.667 2.667-4 0l-1-15c-.368-1.41-1.201-2.41-2.5-3a83.58 83.58 0 0 0-6.5 15c-1.309 2.391-2.309 2.391-3 0a126.764 126.764 0 0 1 3.5-20 4.934 4.934 0 0 0-3 .5 33.837 33.837 0 0 1-5 6c-1.444.781-2.777.614-4-.5 8.345-12.823 11.345-26.823 9-42zM115.5 28.5c1.624-.14 2.79.527 3.5 2 .214 5.385.714 10.719 1.5 16 1.151 1.231 2.317 1.231 3.5 0l4-12c1.687-3.949 3.187-3.949 4.5 0a312.8 312.8 0 0 1-4.5 17c1.494 1.247 2.994 1.247 4.5 0 1.114-2.904 3.114-4.904 6-6l1 2c-2.164 4.995-4.33 9.995-6.5 15-1.572 8.713-2.405 17.38-2.5 26-10.078-5.561-19.911-5.228-29.5 1-1.204-11.405-5.87-21.072-14-29a8.434 8.434 0 0 1-.5-4 18.436 18.436 0 0 1 6 .5 17.343 17.343 0 0 0 7 3.5 4.94 4.94 0 0 0 2.5-1 142.776 142.776 0 0 0 1.5-28c1.322-.17 2.489.163 3.5 1a248.835 248.835 0 0 0 4 15c1 1.333 2 1.333 3 0 .207-6.413.707-12.747 1.5-19z"/><path style="opacity:1" fill="#e4a31c" d="M48.5 28.5c1.322-.17 2.489.163 3.5 1 .83 5.977 1.33 11.977 1.5 18 1.322.17 2.489-.163 3.5-1l5-14c2.395-1.298 3.562-.465 3.5 2.5a650.543 650.543 0 0 0-4 17.5c3.599-1.064 6.599-3.23 9-6.5a4.932 4.932 0 0 1 3-.5 315.446 315.446 0 0 0-8.5 22 222.68 222.68 0 0 1-1.5 21c-10.023-5.498-19.856-5.165-29.5 1-1.194-11.388-5.861-21.054-14-29a8.434 8.434 0 0 1-.5-4c2.357-.163 4.69.003 7 .5 2.283 3.075 5.117 3.908 8.5 2.5a138.313 138.313 0 0 0 1.5-28c1.322-.17 2.489.163 3.5 1a248.316 248.316 0 0 0 4 15c1 1.333 2 1.333 3 0 .247-6.382.747-12.715 1.5-19z"/><path style="opacity:1" fill="#fdfdfd" d="M-.5 117.5c7.43 40.764 31.43 65.431 72 74h-72v-74zM165.5 119.5v72h-73c40.211-7.877 64.544-31.877 73-72z"/></svg>
